_src/static/img/icon/instagram.svg

<svg width="16" height="16" viewBox="0 0 16 16" fill="none" xmlns="http://www.w3.org/2000/svg">
<path fill-rule="evenodd" clip-rule="evenodd" d="M8 0C5.82667 0 5.556 0.00933333 4.70133 0.0493333C1.79467 0.182667 0.181333 1.79467 0.048 4.70133C0.00933333 5.556 0 5.828 0 8C0 10.1733 0.00933333 10.4453 0.048 11.2987C0.181333 14.204 1.79467 15.8187 4.70133 15.952C5.556 15.9907 5.82667 16 8 16C10.1733 16 10.4453 15.9907 11.3 15.952C14.2013 15.8187 15.8213 14.2067 15.952 11.2987C15.9907 10.4453 16 10.1733 16 8C16 5.828 15.9907 5.556 15.952 4.70133C15.8213 1.79867 14.2067 0.181333 11.3 0.0493333C10.4453 0.00933333 10.1733 0 8 0ZM8 1.44267C10.136 1.44267 10.3893 1.45067 11.2333 1.48933C13.4027 1.588 14.4133 2.616 14.5133 4.768C14.5507 5.612 14.5587 5.864 14.5587 8C14.5587 10.136 14.5507 10.3893 14.5133 11.232C14.4133 13.3827 13.404 14.4133 11.2333 14.512C10.3893 14.5493 10.1373 14.5587 8 14.5587C5.864 14.5587 5.61067 14.5507 4.768 14.512C2.59467 14.412 1.588 13.38 1.488 11.232C1.45067 10.3893 1.44133 10.136 1.44133 8C1.44133 5.864 1.45067 5.61067 1.488 4.768C1.58667 2.61467 2.59733 1.58667 4.768 1.488C5.61067 1.44933 5.864 1.44267 8 1.44267ZM3.892 8C3.892 5.73067 5.732 3.892 8 3.892C10.268 3.892 12.108 5.732 12.108 8C12.108 10.2693 10.268 12.108 8 12.108C5.732 12.108 3.892 10.2693 3.892 8ZM8 10.6667C6.52667 10.6667 5.33333 9.47333 5.33333 8C5.33333 6.528 6.52667 5.33333 8 5.33333C9.472 5.33333 10.668 6.52667 10.668 8C10.668 9.47333 9.472 10.6667 8 10.6667ZM11.3093 3.73067C11.3093 3.2 11.74 2.77067 12.2693 2.77067C12.8013 2.77067 13.2307 3.2 13.2307 3.73067C13.2307 4.26133 12.8 4.69067 12.2693 4.69067C11.7387 4.69067 11.3093 4.26 11.3093 3.73067Z" fill="url(#paint0_linear)"/>
<defs>
<linearGradient id="paint0_linear" x1="-8" y1="8" x2="8" y2="24" gradientUnits="userSpaceOnUse">
<stop stop-color="#93F6A5"/>
<stop offset="1" stop-color="#58D2E5"/>
</linearGradient>
</defs>
</svg>

<svg width="16" height="16" fill="none" xmlns="http://www.w3.org/2000/svg"><path fill-rule="evenodd" clip-rule="evenodd" d="M8 0C5.827 0 5.556.01 4.701.05 1.795.182.181 1.794.048 4.7.009 5.556 0 5.828 0 8c0 2.173.01 2.445.048 3.299.133 2.905 1.747 4.52 4.653 4.653C5.556 15.991 5.827 16 8 16s2.445-.01 3.3-.048c2.901-.133 4.521-1.745 4.652-4.653.039-.854.048-1.126.048-3.299 0-2.172-.01-2.444-.048-3.299C15.822 1.8 14.207.181 11.3.05 10.445.01 10.173 0 8 0zm0 1.443c2.136 0 2.39.008 3.233.046 2.17.099 3.18 1.127 3.28 3.279.038.844.046 1.096.046 3.232s-.008 2.39-.046 3.232c-.1 2.15-1.109 3.181-3.28 3.28-.844.037-1.096.047-3.233.047-2.136 0-2.39-.008-3.232-.047-2.173-.1-3.18-1.132-3.28-3.28-.037-.843-.047-1.096-.047-3.232s.01-2.39.047-3.232c.099-2.153 1.11-3.181 3.28-3.28.843-.039 1.096-.045 3.232-.045zM3.892 8a4.108 4.108 0 118.216 0 4.108 4.108 0 01-8.216 0zM8 10.667a2.666 2.666 0 110-5.334 2.668 2.668 0 110 5.334zm3.31-6.936a.96.96 0 111.92 0 .96.96 0 01-1.92 0z" fill="url(#paint0_linear)"/><defs><linearGradient id="paint0_linear" x1="-8" y1="8" x2="8" y2="24" gradientUnits="userSpaceOnUse"><stop stop-color="#93F6A5"/><stop offset="1" stop-color="#58D2E5"/></linearGradient></defs></svg>
